src/svg/user.svg

<?xml version="1.0" encoding="utf-8"?>
<!-- Generator: Adobe Illustrator 19.2.1, SVG Export Plug-In . SVG Version: 6.00 Build 0)  -->
<svg version="1.1" xmlns="http://www.w3.org/2000/svg" xmlns:xlink="http://www.w3.org/1999/xlink" x="0px" y="0px" width="24px"
	 height="24px" viewBox="0 0 24 24" enable-background="new 0 0 24 24" xml:space="preserve">
<g id="Filled_Icons_1_">
	<g id="Filled_Icons">
		<path d="M16.489,9.754c0.808-0.764,0.749-2.433,0.094-3c0.521-1.385,1.189-2.997,0.907-4.409C17.144,0.614,14.686,0,12.686,0
			c-1.551,0-3.435,0.391-4.029,1.461C8.06,1.527,7.599,1.774,7.284,2.198C6.416,3.37,7.009,5.169,7.436,6.735
			C6.781,7.303,6.703,8.99,7.511,9.754c0.111,1.588,1.05,2.561,1.489,2.934v2.408c-0.421,0.157-0.833,0.309-1.234,0.456
			c-3.471,1.276-5.979,2.199-6.713,3.668C0.012,21.301,0,23.411,0,23.5C0,23.776,0.224,24,0.5,24h23c0.276,0,0.5-0.224,0.5-0.5
			c0-0.089-0.012-2.199-1.053-4.28c-0.735-1.47-3.243-2.392-6.714-3.668c-0.4-0.148-0.813-0.299-1.233-0.456v-2.408
			C15.439,12.314,16.378,11.342,16.489,9.754z"/>
	</g>
	<g id="New_icons">
	</g>
</g>
<g id="Invisible_Shape">
	<rect fill="none" width="24" height="24"/>
</g>
</svg>

<?xml version="1.0" encoding="UTF-8"?>
<svg width="24px" height="24px" viewBox="0 0 24 24" version="1.1" xmlns="http://www.w3.org/2000/svg" xmlns:xlink="http://www.w3.org/1999/xlink">
    <!-- Generator: Sketch 42 (36781) - http://www.bohemiancoding.com/sketch -->
    <title>user</title>
    <desc>Created with Sketch.</desc>
    <defs></defs>
    <g id="Icons" stroke="none" stroke-width="1">
        <g id="user">
            <path d="M16.489,9.754 C17.297,8.99 17.238,7.321 16.583,6.754 C17.104,5.369 17.772,3.757 17.49,2.345 C17.144,0.614 14.686,0 12.686,0 C11.135,0 9.251,0.391 8.657,1.461 C8.06,1.527 7.599,1.774 7.284,2.198 C6.416,3.37 7.009,5.169 7.436,6.735 C6.781,7.303 6.703,8.99 7.511,9.754 C7.622,11.342 8.561,12.315 9,12.688 L9,15.096 C8.579,15.253 8.167,15.405 7.766,15.552 C4.295,16.828 1.787,17.751 1.053,19.22 C0.012,21.301 0,23.411 0,23.5 C0,23.776 0.224,24 0.5,24 L23.5,24 C23.776,24 24,23.776 24,23.5 C24,23.411 23.988,21.301 22.947,19.22 C22.212,17.75 19.704,16.828 16.233,15.552 C15.833,15.404 15.42,15.253 15,15.096 L15,12.688 C15.439,12.314 16.378,11.342 16.489,9.754 L16.489,9.754 Z"></path>
        </g>
    </g>
</svg>
